frontend/public/svg/weather/cloudy-day.svg

<svg width="163" height="122" viewBox="0 0 163 122" fill="none" xmlns="http://www.w3.org/2000/svg">
<g clip-path="url(#clip0)">
<path d="M76.6061 29.8095C81.2142 23.8185 87.389 20.532 94.2957 18.496C104.267 15.5576 113.713 17.4846 122.504 22.4341C126.486 24.7426 130.159 27.5464 133.435 30.7787C139.73 36.8649 141.962 44.5438 140.797 53.2429C141.045 53.4614 141.256 53.7683 141.542 53.8825C155.091 59.2507 163.38 76.9564 157.097 93.7081C155.187 98.8059 152.192 103.302 148.818 107.51C144.444 112.968 138.296 115.492 131.675 116.705C125.077 117.914 118.396 118.7 111.731 119.501C94.2963 121.597 76.7564 121.301 59.2471 121.66C50.6996 121.835 42.1693 121.682 33.8226 119.521C31.2242 118.848 28.6375 118.086 26.1145 117.177C12.7672 112.374 5.32391 102.352 1.98512 89.0586C-1.21387 76.3256 -0.443573 63.6363 5.83758 52.0558C14.8898 35.3737 28.8884 25.0331 48.1335 23.009C56.9127 22.0855 65.2836 24.3869 73.2423 28.1116C74.2564 28.5842 75.2402 29.1171 76.6061 29.8095ZM63.0729 111.699C67.5598 111.516 72.0511 111.407 76.5332 111.138C91.1 110.266 105.657 109.213 120.23 108.493C125.162 108.278 129.989 107 134.382 104.747C144.705 99.4911 149.685 90.1993 148.01 78.6989C146.778 70.242 142.114 64.4401 133.717 62.2617C123.054 59.4966 113.209 61.2585 104.733 68.6202C102.371 70.6732 100.309 73.0754 98.1044 75.3149C97.4553 76.0867 96.73 76.7897 95.9385 77.4145C93.2718 79.1807 90.1627 78.1562 89.1828 75.093C88.835 73.9398 88.8382 72.7092 89.1927 71.558C90.5421 67.4887 89.9849 63.5898 88.5704 59.7082C86.755 54.6183 83.9498 49.9377 80.3177 45.9366C69.9305 34.5865 56.9981 30.887 42.1432 33.9764C36.1358 35.2235 31.007 38.5947 26.1901 42.3614C10.442 54.6763 7.14262 71.9899 11.1725 88.1187C13.6712 98.122 19.5866 105.38 29.7513 108.52C32.8564 109.469 36.018 110.224 39.2172 110.78C47.1162 112.168 55.0971 111.897 63.0729 111.699ZM99.0456 60.5049C108.202 52.8782 118.539 50.0455 129.815 50.8803C130.793 46.1107 129.891 41.7035 126.873 38.2945C116.437 26.5073 101.407 22.6546 86.6986 31.6786C85.4043 32.5653 84.1559 33.5162 82.9575 34.5283C90.7259 41.443 96.3159 50.4684 99.0456 60.5043V60.5049Z" fill="black"/>
<path d="M142.527 25.1056C141.753 24.5701 140.479 24.1405 140.122 23.3148C139.944 22.8096 139.888 22.2699 139.958 21.7387C140.027 21.2076 140.219 20.6997 140.521 20.2569C143.143 17.4691 146.553 15.5465 150.296 14.744C150.955 14.5568 151.659 14.6029 152.288 14.8748C152.916 15.1466 153.432 15.6272 153.747 16.2355C154.13 16.8728 154.274 17.6256 154.153 18.359C154.031 19.0923 153.654 19.7588 153.087 20.2395C150.144 22.7953 146.476 23.8606 142.527 25.1056Z" fill="black"/>
<path d="M154.549 40.8203C155.923 40.9381 157.29 41.1253 158.645 41.3805C160.756 41.8826 161.909 43.3714 161.769 45.1461C161.761 45.5711 161.668 45.9904 161.493 46.378C161.319 46.7657 161.067 47.1141 160.754 47.4017C160.441 47.6892 160.074 47.9099 159.673 48.0509C159.272 48.192 158.846 48.2504 158.422 48.2221C155.663 48.1704 152.918 47.8406 150.225 47.2376C149.555 47.083 148.97 46.6777 148.589 46.105C148.208 45.5323 148.061 44.8355 148.178 44.1578C148.22 43.478 148.489 42.8324 148.943 42.324C149.396 41.8156 150.007 41.4743 150.678 41.3549C151.98 41.0694 153.325 40.9811 154.549 40.8203Z" fill="black"/>
<path d="M129.324 6.76267C129.067 8.11915 128.69 9.44974 128.197 10.7392C127.84 11.6414 127.16 12.3786 126.289 12.8069C125.418 13.2352 124.42 13.324 123.487 13.0562C122.602 12.8257 121.83 12.2807 121.318 11.523C120.805 10.7654 120.586 9.84689 120.701 8.93937C120.932 6.9433 121.402 4.98258 122.101 3.09833C122.326 2.32811 122.829 1.66895 123.512 1.24854C124.196 0.828128 125.012 0.676533 125.8 0.822945C127.609 1.02838 128.547 2.23802 128.994 3.85787C129.169 4.81756 129.28 5.78798 129.324 6.76267Z" fill="black"/>
<path d="M99.5604 9.15197C99.4422 9.89541 99.246 10.6246 98.9743 11.3267C97.7272 13.9889 94.6772 14.3364 93.102 11.86C92.2789 10.525 91.7558 9.02674 91.5701 7.46945C91.3837 5.91217 91.5392 4.33304 92.0249 2.84177C92.6609 0.654852 95.4668 0.407397 97.2376 2.26811C98.9414 4.0586 99.4357 6.34481 99.5604 9.15197Z" fill="black"/>
<path d="M69.619 11.5369C72.1348 11.4837 76.5664 14.2121 77.3697 16.5992C77.6749 17.5062 77.5929 18.9936 77.0271 19.6303C76.3426 20.4008 74.8474 21.0746 73.8964 20.8718C72.4242 20.5471 71.0407 19.9055 69.8409 18.9925C68.6418 18.0795 67.6553 16.9164 66.9504 15.5839C65.7959 13.5407 67.1906 11.5881 69.619 11.5369Z" fill="black"/>
</g>
<defs>
<clipPath id="clip0">
<rect width="162.115" height="121.423" fill="white" transform="translate(0.0473633 0.533203)"/>
</clipPath>
</defs>
</svg>

<svg xmlns="http://www.w3.org/2000/svg" width="163" height="122" fill="none" viewBox="0 0 163 122"><g fill="#000" clip-path="url(#a)"><path d="M76.606 29.81c4.608-5.991 10.783-9.278 17.69-11.314 9.971-2.938 19.417-1.011 28.208 3.938a54.4 54.4 0 0 1 10.931 8.345c6.295 6.086 8.527 13.765 7.362 22.464.248.218.459.525.745.64 13.549 5.368 21.838 23.073 15.555 39.825-1.91 5.098-4.905 9.594-8.279 13.802-4.374 5.458-10.522 7.982-17.143 9.195-6.598 1.209-13.279 1.995-19.944 2.796-17.435 2.096-34.975 1.8-52.484 2.159-8.547.175-17.078.022-25.424-2.139-2.599-.673-5.186-1.435-7.709-2.344-13.347-4.803-20.79-14.825-24.129-28.118-3.199-12.733-2.429-25.423 3.853-37.003 9.052-16.682 23.05-27.023 42.296-29.047 8.779-.924 17.15 1.378 25.108 5.103 1.014.472 1.998 1.005 3.364 1.698m-13.533 81.889c4.487-.183 8.978-.292 13.46-.561 14.567-.872 29.124-1.925 43.697-2.645a34.3 34.3 0 0 0 14.152-3.746c10.323-5.256 15.303-14.548 13.628-26.048-1.232-8.457-5.896-14.259-14.293-16.437-10.663-2.765-20.508-1.004-28.984 6.358-2.362 2.053-4.424 4.455-6.629 6.695a15 15 0 0 1-2.165 2.1c-2.667 1.766-5.776.741-6.756-2.322a6.06 6.06 0 0 1 .01-3.535c1.35-4.07.792-7.968-.623-11.85a41 41 0 0 0-8.252-13.771c-10.388-11.35-23.32-15.05-38.175-11.96-6.007 1.247-11.136 4.618-15.953 8.384C10.442 54.676 7.143 71.99 11.172 88.12c2.5 10.003 8.415 17.261 18.58 20.401a78 78 0 0 0 9.465 2.26c7.9 1.388 15.88 1.117 23.856.919m35.973-51.194c9.156-7.627 19.493-10.46 30.769-9.625.978-4.77.076-9.177-2.942-12.586-10.436-11.787-25.466-15.64-40.174-6.615a47 47 0 0 0-3.742 2.85 53.6 53.6 0 0 1 16.089 25.975m43.481-35.399c-.774-.536-2.048-.966-2.405-1.791a3.4 3.4 0 0 1-.164-1.576 3.4 3.4 0 0 1 .563-1.482 18.84 18.84 0 0 1 9.775-5.513 2.974 2.974 0 0 1 3.451 1.491 3.13 3.13 0 0 1-.66 4.005c-2.943 2.555-6.611 3.62-10.56 4.866m12.022 15.714q2.062.177 4.096.56c2.111.503 3.264 1.991 3.124 3.766a3.136 3.136 0 0 1-3.347 3.076 41 41 0 0 1-8.197-.984 2.69 2.69 0 0 1-2.047-3.08 3.036 3.036 0 0 1 2.5-2.803c1.302-.286 2.647-.374 3.871-.535M129.324 6.763a23.3 23.3 0 0 1-1.127 3.976 3.905 3.905 0 0 1-4.71 2.317 3.76 3.76 0 0 1-2.786-4.117 25 25 0 0 1 1.4-5.84A3.24 3.24 0 0 1 125.8.822c1.809.205 2.747 1.415 3.194 3.035q.263 1.441.33 2.905M99.56 9.152a10.7 10.7 0 0 1-.586 2.175c-1.247 2.662-4.297 3.01-5.872.533a10.8 10.8 0 0 1-1.077-9.018c.636-2.187 3.442-2.435 5.213-.574 1.703 1.79 2.198 4.077 2.322 6.884"/><path d="M69.619 11.537c2.516-.053 6.947 2.675 7.75 5.062.306.907.224 2.395-.342 3.031-.684.77-2.18 1.445-3.13 1.242a10.4 10.4 0 0 1-6.947-5.288c-1.154-2.043.24-3.996 2.669-4.047"/></g><defs><clipPath id="a"><path fill="#fff" d="M.047.533h162.115v121.423H.047z"/></clipPath></defs></svg>
